icons/icn_pausa.svg

<svg width="24" xmlns="http://www.w3.org/2000/svg" height="24" id="screenshot-e387bb83-ae60-800e-8006-366ae6e63e4c" viewBox="0 0 24 24" xmlns:xlink="http://www.w3.org/1999/xlink" fill="none" version="1.1"><g id="shape-e387bb83-ae60-800e-8006-366ae6e63e4c"><g class="frame-container-wrapper"><g class="frame-container-blur"><g class="frame-container-shadows"><g fill="none"><g class="fills" id="fills-e387bb83-ae60-800e-8006-366ae6e63e4c"><rect rx="0" ry="0" x="0" y="0" width="24" height="24" transform="matrix(1, 0, 0, 1, 0, 0)" class="frame-background"/></g><g class="frame-children"><g id="shape-e387bb83-ae60-800e-8006-366ae6e63e6a" rx="0" ry="0" style="fill: rgb(0, 0, 0);"><g id="shape-e387bb83-ae60-800e-8006-366ae6e63e6b"><g class="fills" id="fills-e387bb83-ae60-800e-8006-366ae6e63e6b"><path d="M5.998782634735107,5.001236438751221C5.444827556610107,5.001236438751221,4.998782634735107,5.447281360626221,4.998782634735107,6.001236438751221L4.998782634735107,18.001235961914062C4.998782634735107,18.555313110351562,5.444827556610107,19.001235961914062,5.998782634735107,19.001235961914062L8.998783111572266,19.001235961914062C9.552738189697266,19.001235961914062,9.998783111572266,18.555313110351562,9.998783111572266,18.001235961914062L9.998783111572266,6.001236438751221C9.998783111572266,5.447281360626221,9.552738189697266,5.001236438751221,8.998783111572266,5.001236438751221Z" style="stroke-width: 0.404206; stroke-linecap: round; stroke-linejoin: round; fill: rgb(0, 0, 0); fill-opacity: 1;"/></g></g><g id="shape-e387bb83-ae60-800e-8006-366ae6e63e6c"><g class="fills" id="fills-e387bb83-ae60-800e-8006-366ae6e63e6c"><path d="M14.998783111572266,5.001236438751221C14.444828033447266,5.001236438751221,13.998783111572266,5.447281360626221,13.998783111572266,6.001236438751221L13.998783111572266,18.001235961914062C13.998783111572266,18.555313110351562,14.444828033447266,19.001235961914062,14.998783111572266,19.001235961914062L17.998783111572266,19.001235961914062C18.552738189697266,19.001235961914062,18.998783111572266,18.555313110351562,18.998783111572266,18.001235961914062L18.998783111572266,6.001236438751221C18.998783111572266,5.447281360626221,18.552738189697266,5.001236438751221,17.998783111572266,5.001236438751221Z" style="stroke-width: 0.404206; stroke-linecap: round; stroke-linejoin: round; fill: rgb(0, 0, 0); fill-opacity: 1;"/></g></g></g></g></g></g></g></g></g></svg>

<svg fill="none" viewBox="0 0 24 24"><g class="frame-container-wrapper"><g class="frame-container-blur"><g class="frame-container-shadows"><g class="fills"><rect width="24" height="24" class="frame-background" rx="0" ry="0"/></g><g fill="#000" class="frame-children"><path d="M5.9988 5.0012c-.554 0-1 .446-1 1v12c0 .5541.446 1 1 1h3c.554 0 1-.4459 1-1v-12c0-.554-.446-1-1-1ZM14.9988 5.0012c-.554 0-1 .446-1 1v12c0 .5541.446 1 1 1h3c.554 0 1-.4459 1-1v-12c0-.554-.446-1-1-1Z" class="fills"/></g></g></g></g></svg>
